X:4536
T:Dukes Hornpipe. JC.254
T:Lady Flashdash,aka. JC.254
T:Back Of Th Haggard,The,aka. JC.254
M:C|
L:1/8
Q:120
S:John Clare,Poet,Helpstone (1793-1864)
R:Hornpipe
O:England4
A:Northamptonshire
N:Has also aquired the name "Kershaw's HP" more recently off Jamie
N:Knowles due to it's  untitled appearance in the Joseph Kershaw MS. CGP.
Z:P Headford
K:D
"qu"A2|dfdf ecAc|dBGB AFDF|EGFA Gged|c2A2A2"qu"A2|!
dAA"qu"2eA"qu"A2|fefg aAA2|BdGB AGFE|D2D2D2:|:!
"qu"A2|dAdA FAFD|BGDG BGdB|gefd edcB|cded cBAG|!
Fdd2Gee2|Aff2Bgg2|afdf gedc|d2d2d2:|]
